archdroid-icon-theme/Archdroid-BlueGreyDark/mimetypes/scalable/application-x-jar.svg

<?xml version="1.0" encoding="UTF-8" standalone="no"?>
<svg
   xmlns:osb="http://www.openswatchbook.org/uri/2009/osb"
   xmlns:dc="http://purl.org/dc/elements/1.1/"
   xmlns:cc="http://creativecommons.org/ns#"
   xmlns:rdf="http://www.w3.org/1999/02/22-rdf-syntax-ns#"
   xmlns:svg="http://www.w3.org/2000/svg"
   xmlns="http://www.w3.org/2000/svg"
   xmlns:sodipodi="http://sodipodi.sourceforge.net/DTD/sodipodi-0.dtd"
   xmlns:inkscape="http://www.inkscape.org/namespaces/inkscape"
   fill="#263238"
   width="48"
   height="48"
   viewBox="0 0 48 48"
   id="svg2"
   version="1.1"
   inkscape:version="0.91 r13725"
   sodipodi:docname="application-x-jar.svg">
  <metadata
     id="metadata10">
    <rdf:RDF>
      <cc:Work
         rdf:about="">
        <dc:format>image/svg+xml</dc:format>
        <dc:type
           rdf:resource="http://purl.org/dc/dcmitype/StillImage" />
        <dc:title />
      </cc:Work>
    </rdf:RDF>
  </metadata>
  <defs
     id="defs8">
    <linearGradient
       osb:paint="solid"
       id="linearGradient5664">
      <stop
         id="stop5666"
         offset="0"
         style="stop-color:#000000;stop-opacity:1;" />
    </linearGradient>
  </defs>
  <sodipodi:namedview
     pagecolor="#ffffff"
     bordercolor="#666666"
     borderopacity="1"
     objecttolerance="10"
     gridtolerance="10"
     guidetolerance="10"
     inkscape:pageopacity="0"
     inkscape:pageshadow="2"
     inkscape:window-width="1366"
     inkscape:window-height="713"
     id="namedview6"
     showgrid="false"
     inkscape:zoom="3.897603896495845"
     inkscape:cx="-12.72400260375764"
     inkscape:cy="10.51360435768707"
     inkscape:window-x="0"
     inkscape:window-y="30"
     inkscape:window-maximized="1"
     inkscape:current-layer="svg2"
     inkscape:snap-bbox="true"
     inkscape:bbox-paths="true"
     inkscape:bbox-nodes="true" />
  <path
     style="fill:#5382a1;fill-opacity:1"
     d="M 12 6 C 11.07 6 10.239453025 6.429843650000003 9.689453125 7.08984375 L 6.919921875 10.44921875 C 6.339921875 11.14921875 5.999999999999999 12.03 6 13 L 6 38 C 6 40.21 7.789999999999999 42 10 42 L 38 42 C 40.21 42 42 40.21 42 38 L 42 13 C 42 12.03 41.65984375 11.14921875 41.08984375 10.44921875 L 38.3203125 7.08984375 C 37.7603125 6.429843650000001 36.93 5.999999999999998 36 6 L 12 6 z M 11.880859375 8 L 35.880859375 8 L 37.75 10 L 10.25 10 L 11.880859375 8 z M 26.712890625 11.7265625 C 26.712890625 11.7265635 29.531065625 14.54559325 24.041015625 18.87890625 C 19.638356625 22.35631825 23.03683250000001 24.337850625 24.0390625 26.603515625 C 21.4689025 24.284821625 19.58318124999999 22.243432 20.84765625 20.34375 C 22.70450725 17.555594 27.84929262499999 16.20354549999999 26.712890625 11.7265625 z M 30.109375 17.265625 C 24.195513 20.695287 25.288068625 21.68944625 26.712890625 23.69140625 C 28.237890625 25.83913625 24.91796875 27.552734375 24.91796875 27.552734375 C 24.91796875 27.552734375 26.568571625 26.19799025 25.259765625 24.69140625 C 20.826274625 19.58251525 30.109435 17.265625 30.109375 17.265625 z M 31.892578125 26.39453125 C 34.454109125 26.51736225 35.6244865 30.16380749999999 29.6796875 31.7265625 C 29.6796255 31.7265625 29.757671 31.656732 29.78125 31.59375 C 34.869264 28.950524 32.51514287499999 26.409785125 30.873046875 26.751953125 C 30.471490875 26.835753125 30.29296875 26.908203125 30.29296875 26.908203125 C 30.29296875 26.908203125 30.4416815 26.67505875 30.7265625 26.57421875 C 31.1326405 26.43152375 31.526645125 26.37698425 31.892578125 26.39453125 z M 20.603515625 26.650390625 C 20.819744625 26.644733625 20.939453125 26.65234375 20.939453125 26.65234375 C 20.939453125 26.65234375 16.010245375 27.822495875 19.193359375 28.248046875 C 20.537797375 28.427948875 23.21804675 28.387215375 25.71484375 28.177734375 C 27.75477675 28.006530375 29.80078125 27.640625 29.80078125 27.640625 C 29.80078125 27.640625 29.082891 27.947608375 28.5625 28.302734375 C 23.556908 29.619278375 13.888158 29.00615425000001 16.671875 27.66015625 C 18.436721 26.80637025 19.954826625 26.667360625 20.603515625 26.650390625 z M 19.791015625 29.728515625 C 19.791015625 29.728515625 18.629388875 30.588043375 20.404296875 30.771484375 C 22.700075875 31.008495375 24.512508625 31.02772212499999 27.650390625 30.423828125 C 27.650390625 30.423828125 28.083748 30.86509975 28.765625 31.10546875 C 22.347809 32.98271575000001 15.199037625 31.25255662499999 19.791015625 29.728515625 z M 20.44140625 32.697265625 C 20.44140625 32.697265625 19.4060985 33.30048925 21.1796875 33.50390625 C 23.3286775 33.74925525 24.42550475000001 33.713131 26.79296875 33.265625 C 26.79296875 33.265625 27.417591375 33.656231625 28.287109375 33.994140625 C 22.978161375 36.268684625 16.27186025 33.86228162499999 20.44140625 32.697265625 z M 17.744140625 34.666015625 C 18.000108625 34.675862625 18.211204125 34.723647375 18.345703125 34.818359375 C 18.345703125 34.818359375 18.00523125 34.795095125 17.41015625 34.923828125 C 16.83943625 35.047102125 15.0253695 35.62966925 15.9921875 36.05078125 C 18.6835825 37.22149725 28.37388200000001 36.94161687500002 31.4375 36.013671875 C 33.048643 35.52489387500001 32.28125 34.892578125 32.28125 34.892578125 C 35.088362 36.159213125 26.18284800000001 38.70361075 15.359375 36.94921875 C 11.886543 36.38564375 15.952360625 34.597082625 17.744140625 34.666015625 z M 34 36.2734375 C 33.822497 38.5840935 26.322251125 39.0699865 21.439453125 38.7578125 C 18.230365125 38.5512755 17.60546875 38.03515625 17.60546875 38.03515625 C 20.65397075 38.53851125 25.79685675 38.630399125 29.96484375 37.845703125 C 33.65934975000001 37.150688125 34 36.2734375 34 36.2734375 z "
     id="path4164" />
</svg>

<svg xmlns="http://www.w3.org/2000/svg" fill="#263238" viewBox="0 0 48 48"><path d="m12 6c-.93 0-1.761.43-2.311 1.09l-2.77 3.359c-.58.7-.92 1.581-.92 2.551v25c0 2.21 1.79 4 4 4h28c2.21 0 4-1.79 4-4v-25c0-.97-.34-1.851-.91-2.551l-2.77-3.359c-.56-.66-1.39-1.09-2.32-1.09h-24m-.119 2h24l1.869 2h-27.5l1.631-2m14.832 3.727c0 0 2.818 2.819-2.672 7.152-4.403 3.477-1 5.459-.002 7.725-2.57-2.319-4.456-4.36-3.191-6.26 1.857-2.788 7-4.14 5.865-8.617m3.396 5.539c-5.914 3.43-4.821 4.424-3.396 6.426 1.525 2.148-1.795 3.861-1.795 3.861 0 0 1.651-1.355.342-2.861-4.433-5.109 4.85-7.426 4.85-7.426m1.783 9.129c2.562.123 3.732 3.769-2.213 5.332 0 0 .078-.07.102-.133 5.088-2.643 2.734-5.184 1.092-4.842-.402.084-.58.156-.58.156 0 0 .149-.233.434-.334.406-.143.8-.197 1.166-.18m-11.289.256c.216-.006.336.002.336.002 0 0-4.929 1.17-1.746 1.596 1.344.18 4.02.139 6.521-.07 2.04-.171 4.086-.537 4.086-.537 0 0-.718.307-1.238.662-5.01 1.317-14.674.703-11.891-.643 1.765-.854 3.283-.993 3.932-1.01m-.813 3.078c0 0-1.162.86.613 1.043 2.296.237 4.108.256 7.246-.348 0 0 .433.441 1.115.682-6.418 1.877-13.567.147-8.975-1.377m.65 2.969c0 0-1.035.603.738.807 2.149.245 3.246.209 5.613-.238 0 0 .625.391 1.494.729-5.309 2.275-12.02-.132-7.846-1.297m-2.697 1.969c.256.01.467.058.602.152 0 0-.34-.023-.936.105-.571.123-2.385.706-1.418 1.127 2.691 1.171 12.382.891 15.445-.037 1.611-.489.844-1.121.844-1.121 2.807 1.267-6.098 3.811-16.922 2.057-3.473-.564.593-2.352 2.385-2.283m16.256 1.607c-.178 2.311-7.678 2.797-12.561 2.484-3.209-.207-3.834-.723-3.834-.723 3.049.503 8.191.595 12.359-.189 3.695-.695 4.04-1.572 4.04-1.572" fill="#5382a1"/></svg>
